storage/app/icons/phosphoricons/fill/files-fill.svg

<svg xmlns="http://www.w3.org/2000/svg" fill="currentColor" viewBox="0 0 256 256"><path d="m213.66 66.34-40-40A8 8 0 0 0 168 24H88a16 16 0 0 0-16 16v16H56a16 16 0 0 0-16 16v144a16 16 0 0 0 16 16h112a16 16 0 0 0 16-16v-16h16a16 16 0 0 0 16-16V72a8 8 0 0 0-2.34-5.66M136 192H88a8 8 0 0 1 0-16h48a8 8 0 0 1 0 16m0-32H88a8 8 0 0 1 0-16h48a8 8 0 0 1 0 16m64 24h-16v-80a8 8 0 0 0-2.34-5.66l-40-40A8 8 0 0 0 136 56H88V40h76.69L200 75.31Z"/></svg>

<svg xmlns="http://www.w3.org/2000/svg" viewBox="0 0 256 256" fill="currentColor"><path d="M213.66,66.34l-40-40A8,8,0,0,0,168,24H88A16,16,0,0,0,72,40V56H56A16,16,0,0,0,40,72V216a16,16,0,0,0,16,16H168a16,16,0,0,0,16-16V200h16a16,16,0,0,0,16-16V72A8,8,0,0,0,213.66,66.34ZM136,192H88a8,8,0,0,1,0-16h48a8,8,0,0,1,0,16Zm0-32H88a8,8,0,0,1,0-16h48a8,8,0,0,1,0,16Zm64,24H184V104a8,8,0,0,0-2.34-5.66l-40-40A8,8,0,0,0,136,56H88V40h76.69L200,75.31Z"/></svg>
